X: 15
T:Haste to the Wedding, Brackley
M:6/8
L:1/8
A:Brackley
P:A(AB)4A
K:G
P:A
D|D>ED D>cB|A>GA BGE|D>B,D B>cB|c>AA A2D   |
D>ED D>cB|A>GA BGE|D>B,D B>dB|G>GG G2   ||
P:B
d|dBd  dBd |ece  ece|dBd   dcB |ABA  A2B/c/|
d3   B3  |A>GA BGE|D>B,D B>dB|G>GG G2   ||
